public/img/quarter-icon-9.svg

<svg width="55" height="55" viewBox="0 0 55 55" fill="none" xmlns="http://www.w3.org/2000/svg">
<path d="M53.3419 44.3943L53.3165 44.369L53.3461 44.3309L52.5901 43.6974L47.3359 38.8234C47.3359 38.8234 47.243 38.9205 47.0909 39.0683L46.9515 39.2204C45.7562 40.3439 41.9086 43.5834 37.3978 43.6425C37.3006 43.6425 37.2035 43.6425 37.1106 43.6425C34.7327 43.3849 32.4181 42.1093 30.074 39.7483C26.1756 35.8288 21.8422 33.7044 17.1751 33.4129C17.0484 33.4129 16.9175 33.4129 16.7866 33.4129C16.0845 33.3505 15.3791 33.3322 14.6748 33.358C7.64667 33.6452 2.42632 38.3588 0.652405 40.1749C0.280728 40.5255 0.0526405 40.7662 0.00618085 40.8169L0.035775 40.8422L0.00195312 40.876L0.757995 41.5138L6.01636 46.3963C6.01636 46.3963 6.10931 46.2991 6.26136 46.1555L6.40067 46.0035C7.60018 44.8842 11.4437 41.6447 15.9545 41.5814C16.0517 41.5814 16.1488 41.5814 16.2459 41.5814C18.6196 41.8432 20.9342 43.1145 23.2825 45.4755C27.1809 49.395 31.51 51.5195 36.1771 51.811C36.3038 51.811 36.439 51.811 36.5657 51.811C37.2678 51.8732 37.9731 51.8915 38.6775 51.8659C45.7014 51.5787 50.926 46.8693 52.6957 45.0532C53.0673 44.7026 53.2996 44.4577 53.3419 44.4112" fill="#FFD100"/>
<path d="M37.7761 6.33651V12.2984H36.4867V3H17.5167V12.2984H16.2273V6.33651H14V12.2984V16.6336V22.5878H16.2273V16.6336H17.5167V26H36.4867V16.6336H37.7761V22.5878H40V16.6336V12.2984V6.33651H37.7761Z" fill="#FFD100"/>
</svg>

<svg width="55" height="55" fill="none" xmlns="http://www.w3.org/2000/svg"><path d="M53.342 44.394l-.026-.025.03-.038-.756-.634-5.254-4.874s-.093.097-.245.245l-.14.152c-1.195 1.124-5.042 4.363-9.553 4.422h-.287c-2.378-.257-4.693-1.533-7.037-3.894-3.898-3.92-8.232-6.044-12.899-6.335h-.388a16.877 16.877 0 00-2.112-.055c-7.028.287-12.249 5-14.023 6.817-.371.35-.6.591-.646.642l.03.025-.034.034.756.638 5.258 4.882s.093-.097.245-.24l.14-.152c1.2-1.12 5.043-4.36 9.553-4.423h.292c2.374.262 4.688 1.533 7.037 3.894 3.898 3.92 8.227 6.044 12.894 6.336h.389c.702.062 1.407.08 2.111.055 7.024-.287 12.249-4.997 14.019-6.813.371-.35.604-.595.646-.642M37.776 6.337v5.961h-1.29V3h-18.97v9.298h-1.289V6.337H14v16.251h2.227v-5.954h1.29V26h18.97v-9.366h1.29v5.954H40V6.337h-2.224z" fill="#FFD100"/></svg>
